app/dist/common/images/beijing-ctj-inform.svg

<svg height="18" viewBox="0 0 18 18" width="18" xmlns="http://www.w3.org/2000/svg"><path d="m0 0h18v18h-18z" fill="#f0f3fa"/><path d="m5 5h5.92-2.92l-.5 1h-1.5v6h1.41l-.3 1h-1.43a.67.67 0 0 1 -.67-.67v-7.33zm3.98 8h3.35c.37 0 .67-.3.67-.67v-5.83h-1v5.5h-2.72z" fill="#1d3b72"/><path d="m11 5h2v1h-2.32l-2.22 7h-.96l2.23-7h-1.73l.5-1z" fill="#a23832"/></svg>

<!-- by TradingView --><svg width="18" height="18" viewBox="0 0 18 18" xmlns="http://www.w3.org/2000/svg"><path fill="#F0F3FA" d="M0 0h18v18H0z"/><path d="M5 5h5.92H8l-.5 1H6v6h1.41l-.3 1H5.68a.67.67 0 0 1-.67-.67V5Zm3.98 8h3.35c.37 0 .67-.3.67-.67V6.5h-1V12H9.28l-.3 1Z" fill="#1D3B72"/><path d="M11 5h2v1h-2.32l-2.22 7H7.5l2.23-7H8l.5-1H11Z" fill="#A23832"/></svg>
